X: 6
T: John Ryan's
R: polka
M: 2/4
L: 1/8
K: Dmaj
|: "D"dd "G"B/c/d/B/ | "D"AF AF | "D"dd "G"B/c/d/B/ | "A"AF "(D)"ED |
"D"dd "G"B/c/d/B/ | "D"AF Ad/e/ | "D"fd "A"ec | [1 "D"d2 d2 :|[2 "D"d2 d"A7"d/e/ ||
"D"fd de/f/ | "G"gf "A7"ed/e/ | "D" fd Ad | "A7"fe/f/ a3/g/ |
"D"fd de/f/ | "G"gf "A"ed/e/ | "D"fd "A7"ec | [1 "D"d2 "A7"dd/e/ :|[2"D" d2 d2 ||


Tune 441	Setting 13305

